svg/man_outline.svg

<svg width="48" height="48" viewBox="0 0 48 48" fill="none" xmlns="http://www.w3.org/2000/svg">
<path fill-rule="evenodd" clip-rule="evenodd" d="M24.0016 4.02734C23.4249 4.02709 22.8537 4.14048 22.3208 4.36101C21.7878 4.58154 21.3035 4.90491 20.8956 5.31264C20.4877 5.72037 20.164 6.20447 19.9432 6.73729C19.7224 7.27012 19.6087 7.84122 19.6087 8.41799C19.6087 8.99478 19.7223 9.56592 19.9431 10.0988C20.1639 10.6316 20.4875 11.1158 20.8955 11.5235C21.3034 11.9313 21.7877 12.2547 22.3207 12.4752C22.8536 12.6958 23.4248 12.8092 24.0016 12.8089C25.1662 12.8089 26.283 12.3463 27.1065 11.5228C27.9299 10.6994 28.3925 9.58253 28.3926 8.41799C28.3925 7.2535 27.9298 6.13674 27.1064 5.31335C26.2829 4.48995 25.1661 4.02737 24.0016 4.02734ZM24.0016 4.72074C24.9821 4.721 25.9223 5.11063 26.6156 5.80395C27.3088 6.49727 27.6984 7.43753 27.6986 8.41799C27.6983 9.3984 27.3087 10.3386 26.6155 11.0318C25.9222 11.7251 24.982 12.1147 24.0016 12.1149C23.5158 12.1153 23.0347 12.02 22.5858 11.8344C22.1369 11.6488 21.7289 11.3766 21.3852 11.0333C21.0415 10.6899 20.7688 10.2823 20.5827 9.83352C20.3966 9.38478 20.3008 8.90378 20.3007 8.41799C20.3008 7.93217 20.3966 7.45114 20.5826 7.00237C20.7687 6.55359 21.0414 6.14588 21.3851 5.80253C21.7288 5.45918 22.1368 5.18692 22.5857 5.0013C23.0347 4.81568 23.5158 4.72034 24.0016 4.72074ZM23.5636 13.8909L19.5657 13.8929V13.9039C18.8477 13.9189 18.1617 14.3129 17.8237 15.0059L12.9688 24.9488C12.4878 25.9338 12.8968 27.1128 13.8808 27.5937C14.8647 28.0737 16.0407 27.6697 16.5207 26.6858L19.5657 20.4488V27.4448V28.9317V30.3707V41.9976C19.5657 43.0926 20.4457 43.9745 21.5407 43.9745C22.6356 43.9745 23.5176 43.0926 23.5176 41.9976V30.3707H23.5636H24.4276H24.4706V41.9976C24.4706 43.0926 25.3536 43.9745 26.4486 43.9745C27.5446 43.9745 28.4256 43.0926 28.4256 41.9976V30.3707V28.9317V27.4448V20.4338L31.4765 26.6858C31.9565 27.6697 33.1365 28.0737 34.1205 27.5937C35.1045 27.1128 35.5095 25.9338 35.0285 24.9488L30.1755 15.0059C29.8356 14.3099 29.1476 13.9099 28.4256 13.8999V13.8909H24.4276H23.5636ZM28.3546 14.6129V14.6269C28.8266 14.6399 29.2756 14.8939 29.4996 15.3479L30.5385 17.4529C30.5505 17.4749 30.5705 17.4869 30.5815 17.5099L34.4195 25.2828C34.7415 25.9348 34.4755 26.7188 33.8235 27.0408C33.1725 27.3628 32.3895 27.0968 32.0675 26.4448L31.0245 24.3378C31.0135 24.3188 30.9945 24.3038 30.9835 24.2808L27.7596 17.7499V20.6678V23.6368V28.2637V32.3067V33.2457V34.3177V36.9336V41.9136C27.7596 42.2766 27.6136 42.6066 27.3766 42.8436C27.1396 43.0796 26.8116 43.2256 26.4486 43.2266C26.0856 43.2266 25.7566 43.0806 25.5196 42.8436C25.2826 42.6066 25.1346 42.2766 25.1346 41.9136V36.9336V34.3177V33.2457V32.3067V29.6857H22.8536V32.3067V33.2457V34.3177V36.9336V41.9136C22.8536 42.6406 22.2676 43.2266 21.5407 43.2266C20.8137 43.2266 20.2297 42.6406 20.2297 41.9136V36.9336V34.3177V33.2457V32.3067V29.3377V28.2637V25.6478V24.7108V23.6368V20.6678V17.7029L16.9817 24.2788C16.9717 24.3018 16.9527 24.3168 16.9407 24.3358L15.8997 26.4428C15.5787 27.0948 14.7937 27.3608 14.1427 27.0388C13.4908 26.7168 13.2248 25.9328 13.5468 25.2808L17.3847 17.5059C17.3957 17.4839 17.4177 17.4739 17.4297 17.4509L18.4687 15.3459C18.7097 14.8569 19.2097 14.5849 19.7207 14.6149L28.3546 14.6129Z" fill="#333333" fill-opacity="0.98515"/>
</svg>

<?xml version="1.0" encoding="UTF-8" standalone="no"?>
<!-- Created with Inkscape (http://www.inkscape.org/) -->
<svg id="svg8" xmlns:rdf="http://www.w3.org/1999/02/22-rdf-syntax-ns#" xmlns="http://www.w3.org/2000/svg" xmlns:osb="http://www.openswatchbook.org/uri/2009/osb" height="48" width="48" version="1.1" xmlns:cc="http://creativecommons.org/ns#" viewBox="0 0 12.7 12.7" xmlns:dc="http://purl.org/dc/elements/1.1/">
 <title id="title4753">UIO-icon</title>
 <metadata id="metadata5">
  <rdf:RDF>
   <cc:Work rdf:about="">
    <dc:format>image/svg+xml</dc:format>
    <dc:type rdf:resource="http://purl.org/dc/dcmitype/StillImage"/>
    <dc:title>UIO-icon</dc:title>
    <dc:creator>
     <cc:Agent>
      <dc:title>Joaquín Urbano</dc:title>
     </cc:Agent>
    </dc:creator>
    <dc:rights>
     <cc:Agent>
      <dc:title>GPL</dc:title>
     </cc:Agent>
    </dc:rights>
   </cc:Work>
  </rdf:RDF>
 </metadata>
 <g id="layer1" transform="translate(0,-284.3)">
  <path id="rect4902" d="m24.002 4.0273a4.3911 4.3911 0 0 0 -4.393 4.3907 4.3911 4.3911 0 0 0 4.393 4.391 4.3911 4.3911 0 0 0 4.391 -4.391 4.3911 4.3911 0 0 0 -4.391 -4.3907zm0 0.6934a3.698 3.698 0 0 1 3.697 3.6973 3.698 3.698 0 0 1 -3.697 3.697 3.698 3.698 0 0 1 -3.701 -3.697 3.698 3.698 0 0 1 3.701 -3.6973zm-0.438 9.1703l-3.998 0.002v0.011c-0.718 0.015-1.404 0.409-1.742 1.102l-4.855 9.943c-0.481 0.985-0.072 2.164 0.912 2.645 0.984 0.48 2.16 0.076 2.64-0.908l3.045-6.237v6.996 1.487 1.439 11.627c0 1.095 0.88 1.977 1.975 1.977s1.977-0.882 1.977-1.977v-11.627h0.046 0.864 0.043v11.627c0 1.095 0.883 1.977 1.978 1.977 1.096 0 1.977-0.882 1.977-1.977v-11.627-1.439-1.487-7.011l3.051 6.252c0.48 0.984 1.66 1.388 2.644 0.908 0.984-0.481 1.389-1.66 0.908-2.645l-4.853-9.943c-0.34-0.696-1.028-1.096-1.75-1.106v-0.009h-3.998-0.864zm4.791 0.722v0.014c0.472 0.013 0.921 0.267 1.145 0.721l1.039 2.105c0.012 0.022 0.032 0.034 0.043 0.057l3.838 7.773c0.322 0.652 0.056 1.436-0.596 1.758-0.651 0.322-1.434 0.056-1.756-0.596l-1.043-2.107c-0.011-0.019-0.03-0.034-0.041-0.057l-3.224-6.531v2.918 2.969 4.627 4.043 0.939 1.072 2.616 4.98c0 0.363-0.146 0.693-0.383 0.93-0.237 0.236-0.565 0.382-0.928 0.383-0.363 0-0.692-0.146-0.929-0.383s-0.385-0.567-0.385-0.93v-4.98-2.616-1.072-0.939-2.621h-2.281v2.621 0.939 1.072 2.616 4.98c0 0.727-0.586 1.313-1.313 1.313s-1.311-0.586-1.311-1.313v-4.98-2.616-1.072-0.939-2.969-1.074-2.616-0.937-1.074-2.969-2.965l-3.248 6.576c-0.01 0.023-0.029 0.038-0.041 0.057l-1.041 2.107c-0.321 0.652-1.106 0.918-1.757 0.596-0.652-0.322-0.918-1.106-0.596-1.758l3.838-7.775c0.011-0.022 0.033-0.032 0.045-0.055l1.039-2.105c0.241-0.489 0.741-0.761 1.252-0.731l8.634-0.002z" fill-rule="evenodd" fill-opacity=".98515" transform="matrix(.26458 0 0 .26458 0 284.3)" fill="#333"/>
 </g>
</svg>
